icons/svgs/arrow-right-to-arc-solid.svg

<svg width="24" height="24" viewBox="0 0 24 24" fill="none" xmlns="http://www.w3.org/2000/svg">
<path d="M19.5 12C19.5 7.85938 16.1406 4.5 12 4.5C11.2969 4.5 10.75 3.95312 10.75 3.25C10.75 2.58594 11.2969 2 12 2C17.5078 2 22 6.49219 22 12C22 17.5469 17.5078 22 12 22C11.2969 22 10.75 21.4531 10.75 20.75C10.75 20.0859 11.2969 19.5 12 19.5C16.1406 19.5 19.5 16.1406 19.5 12ZM10.9844 6.76562L15.3594 11.1406C15.8672 11.6094 15.8672 12.4297 15.3594 12.8984L10.9844 17.2734C10.5156 17.7812 9.69531 17.7812 9.22656 17.2734C8.71875 16.8047 8.71875 15.9844 9.22656 15.5156L11.4531 13.25H3.25C2.54688 13.25 2 12.7031 2 12C2 11.3359 2.54688 10.75 3.25 10.75H11.4531L9.22656 8.52344C8.71875 8.05469 8.71875 7.23438 9.22656 6.76562C9.69531 6.25781 10.5156 6.25781 10.9844 6.76562Z" fill="black"/>
</svg>

<svg xmlns="http://www.w3.org/2000/svg" width="24" height="24" fill="currentColor" class="icon-arrow-right-to-arc-solid" viewBox="0 0 24 24">
  <mask id="a" width="20" height="20" x="2" y="2" maskUnits="userSpaceOnUse" style="mask-type:alpha">
    <path d="M19.5 12c0-4.14-3.36-7.5-7.5-7.5-.703 0-1.25-.547-1.25-1.25 0-.664.547-1.25 1.25-1.25 5.508 0 10 4.492 10 10 0 5.547-4.492 10-10 10-.703 0-1.25-.547-1.25-1.25 0-.664.547-1.25 1.25-1.25 4.14 0 7.5-3.36 7.5-7.5m-8.516-5.234 4.375 4.375a1.203 1.203 0 0 1 0 1.757l-4.375 4.375a1.205 1.205 0 0 1-1.757 0 1.205 1.205 0 0 1 0-1.757l2.226-2.266H3.25C2.547 13.25 2 12.703 2 12c0-.664.547-1.25 1.25-1.25h8.203L9.227 8.523a1.205 1.205 0 0 1 0-1.757 1.205 1.205 0 0 1 1.757 0"/>
  </mask>
  <g mask="url(#a)">
    <path d="M0 0h24v24H0z"/>
  </g>
</svg>
